X:29
T:Herd the Cows
Z:Jack Campin, http://www.campin.me.uk/
F:Jack Campin's Nine-Note Tunebook
% last edit 03-02-2013
S:Blaikie MS (NLS MS.1578) p38, Blaikie #123
M:C|
L:1/8
Q:1/2=80
K:DDor
EG|A3  B cBAG|{F}E2 D2 C2 EG|A3 B cBAG|A4 D2
EG|A3  B cBAG|   E2 G2 A2 Bc|d2A2 A2GE|D4 D2||
AB|c2 A2 A2Bc|   d2 G2 G2 AB|c2A2 A2Bc|d4 G2
AB|c2 A2 A2G2|   EG3   A2 Bc|d2A2 A2GE|D4 D2|]

